X:39
T:Drive the cold winter away
R:Jig
M:6/8
L:1/8
Q:110
K:Dm
D|F>ED A2d|c>BA f2F|G2A B>cB|A3-A2||
d|c>BA c2c|B>AG B2B|A>GF E2D|f3-f2d|c>BA c2c|B>AG B2B|A>GF E>DE|D3-D2||

